X:1137
M:6/8
L:1/8
Q:3/8=120
K:G
gfg efg|abg fed|efg dcB|ABG FED|!
gfg efg|abg fed|cea Bdg|AGF G3:|

